images/footer-logo.svg

<svg width="168" height="55" viewBox="0 0 168 55" fill="none" xmlns="http://www.w3.org/2000/svg">
<g filter="url(#filter0_d_450_95)">
<path d="M1.00231 8.52388H4.72021V39.0173H1.00231V8.52388Z" fill="white"/>
<path d="M38.3736 39.3319C36.3223 39.3319 34.5702 38.9544 33.1172 38.1994C31.6643 37.4304 30.5532 36.3189 29.7839 34.8648C29.029 33.3968 28.6515 31.6351 28.6515 29.5799V27.1261C28.6515 24.973 29.0147 23.1345 29.7412 21.6105C30.4819 20.0865 31.5503 18.926 32.9463 18.1291C34.3423 17.3322 36.0232 16.9337 37.989 16.9337C39.8408 16.9337 41.422 17.3601 42.7325 18.213C44.043 19.0519 45.0401 20.2753 45.7239 21.8831C46.4219 23.491 46.7709 25.4274 46.7709 27.6924V29.6428L32.1557 29.6638L32.1601 26.5599H43.2667V26.455C43.2097 24.4976 42.7182 22.9807 41.7923 21.9041C40.8806 20.8135 39.6129 20.2683 37.989 20.2683C36.1371 20.2683 34.6984 20.8485 33.6728 22.0089C32.6614 23.1554 32.1557 24.7843 32.1557 26.8954V29.6638C32.1557 31.6491 32.697 33.1871 33.7796 34.2776C34.8622 35.3542 36.3935 35.8925 38.3736 35.8925C39.328 35.8925 40.2752 35.7037 41.2154 35.3262C42.1556 34.9348 42.9889 34.3895 43.7154 33.6904L46.194 36.0812C45.1114 37.1159 43.8863 37.9198 42.5188 38.493C41.1513 39.0523 39.7696 39.3319 38.3736 39.3319Z" fill="#026FD4"/>
<path d="M65.5954 17.2483H69.5056L60.9587 39.0173H58.0955L49.5486 17.2483H53.4588L59.5271 33.9421L65.5954 17.2483Z" fill="#026FD4"/>
<path d="M84.3772 39.3319C82.2262 39.3319 80.3316 38.8635 78.6935 37.9268C77.0696 36.99 75.8089 35.6618 74.9115 33.9421C74.0141 32.2224 73.5654 30.23 73.5654 27.965V19.5972C73.5654 17.3322 74.0141 15.3398 74.9115 13.6201C75.8089 11.9004 77.0696 10.5722 78.6935 9.63541C80.3316 8.68467 82.2262 8.2093 84.3772 8.2093C86.1578 8.2093 87.7959 8.57282 89.2916 9.29985C90.7873 10.0269 92.0338 11.0615 93.0309 12.4037C94.0423 13.7459 94.726 15.2979 95.0821 17.0595H91.3215C91.0081 16.0109 90.4953 15.0812 89.7831 14.2702C89.0851 13.4453 88.2589 12.8092 87.3045 12.3618C86.3643 11.9144 85.3886 11.6907 84.3772 11.6907C82.9812 11.6907 81.749 12.0192 80.6806 12.6764C79.6265 13.3335 78.8075 14.2563 78.2234 15.4447C77.6394 16.6331 77.3474 18.0173 77.3474 19.5972V27.965C77.3474 29.5309 77.6394 30.9081 78.2234 32.0965C78.8075 33.285 79.6265 34.2077 80.6806 34.8648C81.749 35.508 82.9812 35.8296 84.3772 35.8296C85.4028 35.8296 86.3857 35.6198 87.3259 35.2004C88.266 34.781 89.0851 34.1658 89.7831 33.3549C90.4953 32.5439 91.0081 31.5862 91.3215 30.4817H95.0821C94.726 32.2433 94.0423 33.7953 93.0309 35.1375C92.0195 36.4657 90.766 37.5003 89.2703 38.2414C87.7746 38.9684 86.1435 39.3319 84.3772 39.3319Z" fill="white"/>
<path d="M109.377 39.3319C107.454 39.3319 105.808 38.9614 104.441 38.2204C103.073 37.4794 102.026 36.4028 101.3 34.9907C100.588 33.5646 100.232 31.8519 100.232 29.8525V26.3082C100.232 24.3369 100.588 22.6521 101.3 21.254C102.026 19.8418 103.073 18.7723 104.441 18.0452C105.808 17.3042 107.454 16.9337 109.377 16.9337C111.3 16.9337 112.945 17.3042 114.313 18.0452C115.68 18.7723 116.72 19.8418 117.432 21.254C118.159 22.6521 118.522 24.3369 118.522 26.3082V29.9154C118.522 31.9008 118.159 33.5995 117.432 35.0117C116.72 36.4098 115.68 37.4794 114.313 38.2204C112.945 38.9614 111.3 39.3319 109.377 39.3319ZM109.377 35.8925C111.1 35.8925 112.432 35.3682 113.372 34.3196C114.327 33.271 114.804 31.8029 114.804 29.9154V26.3082C114.804 24.4207 114.327 22.9597 113.372 21.9251C112.432 20.8904 111.1 20.3731 109.377 20.3731C107.653 20.3731 106.314 20.8904 105.36 21.9251C104.42 22.9597 103.95 24.4207 103.95 26.3082V29.9154C103.95 31.8029 104.42 33.271 105.36 34.3196C106.314 35.3682 107.653 35.8925 109.377 35.8925Z" fill="#026FD4"/>
<path d="M124.718 17.2483H128.436V20.3432V39.0173H124.718V17.2483Z" fill="#026FD4"/>
<path d="M143.393 17.2483H147.111V20.1749V36.2219V47.8675H143.393V44.2411V17.2483Z" fill="#026FD4"/>
<path d="M1 44.2411H143.393V47.8675L147.111 47.8687H1V44.2411Z" fill="#026FD4"/>
<path fill-rule="evenodd" clip-rule="evenodd" d="M71.9809 1L65.5954 17.2483H69.5056L75.8894 1L71.9809 1Z" fill="#026FD4"/>
<path d="M10.9808 35.5779H4.72021V39.0173H10.8312C13.3953 39.0173 15.5605 38.6049 17.3269 37.78C19.0932 36.9411 20.4251 35.7107 21.3225 34.0889C22.22 32.4531 22.6687 30.4537 22.6687 28.0909V19.4503C22.6687 17.0735 22.22 15.0742 21.3225 13.4523C20.4251 11.8165 19.0932 10.5861 17.3269 9.76124C15.5747 8.93634 13.4167 8.52388 10.8526 8.52388H4.72021V11.9633H10.9808C13.5734 11.9633 15.5391 12.5855 16.8781 13.8298C18.2314 15.0742 18.908 16.8918 18.908 19.2826V28.2586C18.908 30.6495 18.2314 32.467 16.8781 33.7114C15.5391 34.9557 13.5734 35.5779 10.9808 35.5779Z" fill="white"/>
<path d="M135.765 20.7296C136.406 20.9673 136.933 21.3169 137.346 21.7783L139.761 18.6324C139.148 18.0732 138.429 17.6537 137.603 17.3741C136.791 17.0805 135.879 16.9337 134.868 16.9337C133.429 16.9337 132.112 17.2972 130.915 18.0242C129.943 18.6035 129.117 19.3766 128.436 20.3432V25.2387C128.436 23.7147 128.885 22.5263 129.783 21.6734C130.68 20.8065 131.933 20.3731 133.543 20.3731C134.384 20.3731 135.124 20.492 135.765 20.7296Z" fill="#026FD4"/>
<path d="M149.269 38.4091C150.395 39.0243 151.748 39.3319 153.329 39.3319C154.939 39.3319 156.321 38.9894 157.474 38.3043C158.628 37.6052 159.504 36.5985 160.103 35.2843C160.701 33.97 161 32.3901 161 30.5446V25.8049C161 23.9314 160.708 22.3305 160.124 21.0023C159.54 19.6741 158.685 18.6674 157.56 17.9823C156.449 17.2832 155.11 16.9337 153.543 16.9337C152.033 16.9337 150.687 17.2623 149.504 17.9194C148.563 18.4488 147.766 19.2008 147.111 20.1749V25.1128C147.111 24.19 147.311 23.3512 147.71 22.5962C148.108 21.8412 148.685 21.247 149.44 20.8135C150.195 20.3801 151.086 20.1634 152.111 20.1634C153.764 20.1634 155.039 20.6597 155.936 21.6524C156.833 22.6311 157.282 24.0223 157.282 25.8259V30.5446C157.282 32.3062 156.833 33.6764 155.936 34.6551C155.039 35.6198 153.764 36.1022 152.111 36.1022C151.086 36.1022 150.195 35.8785 149.44 35.4311C148.685 34.9837 148.108 34.3755 147.71 33.6065C147.311 32.8375 147.111 31.9847 147.111 31.0479V36.2219C147.631 37.1711 148.35 37.9002 149.269 38.4091Z" fill="#026FD4"/>
</g>
<defs>
<filter id="filter0_d_450_95" x="0" y="0" width="168" height="54.8687" filterUnits="userSpaceOnUse" color-interpolation-filters="sRGB">
<feFlood flood-opacity="0" result="BackgroundImageFix"/>
<feColorMatrix in="SourceAlpha" type="matrix" values="0 0 0 0 0 0 0 0 0 0 0 0 0 0 0 0 0 0 127 0" result="hardAlpha"/>
<feOffset dx="3" dy="3"/>
<feGaussianBlur stdDeviation="2"/>
<feComposite in2="hardAlpha" operator="out"/>
<feColorMatrix type="matrix" values="0 0 0 0 0 0 0 0 0 0 0 0 0 0 0 0 0 0 0.25 0"/>
<feBlend mode="normal" in2="BackgroundImageFix" result="effect1_dropShadow_450_95"/>
<feBlend mode="normal" in="SourceGraphic" in2="effect1_dropShadow_450_95" result="shape"/>
</filter>
</defs>
</svg>

<svg width="168" height="55" fill="none" xmlns="http://www.w3.org/2000/svg"><g filter="url(#a)"><path d="M1.002 8.524H4.72v30.493H1.002V8.524Z" fill="#fff"/><path d="M38.374 39.332c-2.052 0-3.804-.378-5.257-1.133a7.838 7.838 0 0 1-3.333-3.334c-.755-1.468-1.133-3.23-1.133-5.285v-2.454c0-2.153.364-3.992 1.09-5.516.74-1.523 1.81-2.684 3.205-3.48 1.396-.798 3.077-1.196 5.043-1.196 1.852 0 3.433.426 4.744 1.279 1.31.839 2.307 2.062 2.99 3.67.699 1.608 1.048 3.544 1.048 5.81v1.95l-14.615.02.004-3.103h11.107v-.105c-.057-1.957-.549-3.474-1.475-4.55-.911-1.091-2.18-1.637-3.803-1.637-1.852 0-3.29.58-4.316 1.74-1.012 1.147-1.517 2.776-1.517 4.887v2.769c0 1.985.541 3.523 1.624 4.614 1.082 1.076 2.614 1.614 4.594 1.614.954 0 1.901-.188 2.841-.566a8.015 8.015 0 0 0 2.5-1.636l2.479 2.391a11.983 11.983 0 0 1-3.675 2.412c-1.368.56-2.75.839-4.145.839Zm27.221-22.084h3.91l-8.546 21.77h-2.864l-8.546-21.77h3.91l6.068 16.694 6.068-16.694Z" fill="#026FD4"/><path d="M84.377 39.332c-2.15 0-4.045-.468-5.683-1.405-1.624-.937-2.885-2.265-3.782-3.985-.898-1.72-1.347-3.712-1.347-5.977v-8.368c0-2.265.45-4.257 1.347-5.977.897-1.72 2.158-3.048 3.781-3.985 1.639-.95 3.533-1.426 5.684-1.426 1.78 0 3.419.364 4.915 1.09a10.09 10.09 0 0 1 3.739 3.105c1.011 1.342 1.695 2.894 2.051 4.655h-3.76a7.377 7.377 0 0 0-1.539-2.789 7.246 7.246 0 0 0-2.478-1.908 6.736 6.736 0 0 0-2.928-.671c-1.396 0-2.628.328-3.696.985-1.055.658-1.873 1.58-2.458 2.769-.584 1.188-.876 2.572-.876 4.152v8.368c0 1.566.292 2.943.876 4.131.585 1.189 1.403 2.112 2.458 2.769 1.068.643 2.3.965 3.696.965a7.16 7.16 0 0 0 2.949-.63 6.952 6.952 0 0 0 2.457-1.845c.712-.811 1.225-1.769 1.538-2.873h3.761c-.356 1.761-1.04 3.313-2.051 4.656a10.556 10.556 0 0 1-3.76 3.103c-1.496.727-3.127 1.09-4.894 1.09Z" fill="#fff"/><path d="M109.377 39.332c-1.923 0-3.569-.37-4.936-1.112-1.368-.74-2.415-1.817-3.141-3.23-.712-1.425-1.068-3.138-1.068-5.138v-3.544c0-1.971.356-3.656 1.068-5.054.726-1.412 1.773-2.482 3.141-3.209 1.367-.74 3.013-1.111 4.936-1.111s3.568.37 4.936 1.111c1.367.727 2.407 1.797 3.119 3.209.727 1.398 1.09 3.083 1.09 5.054v3.607c0 1.986-.363 3.684-1.09 5.097a7.369 7.369 0 0 1-3.119 3.208c-1.368.741-3.013 1.112-4.936 1.112Zm0-3.44c1.723 0 3.055-.524 3.995-1.572.955-1.049 1.432-2.517 1.432-4.405v-3.607c0-1.887-.477-3.348-1.432-4.383-.94-1.035-2.272-1.552-3.995-1.552-1.724 0-3.063.517-4.017 1.552-.94 1.035-1.41 2.496-1.41 4.383v3.607c0 1.888.47 3.356 1.41 4.405.954 1.048 2.293 1.572 4.017 1.572Zm15.341-18.644h3.718v21.769h-3.718V17.248Zm18.675 0h3.718v30.619h-3.718V17.248Z" fill="#026FD4"/><path d="M1 44.241h142.393v3.627h3.718H1v-3.627Z" fill="#026FD4"/><path fill-rule="evenodd" clip-rule="evenodd" d="m71.98 1-6.385 16.248h3.91L75.89 1h-3.908Z" fill="#026FD4"/><path d="M10.98 35.578H4.72v3.44h6.111c2.564 0 4.73-.413 6.496-1.238 1.766-.839 3.098-2.07 3.995-3.691.898-1.636 1.347-3.635 1.347-5.998v-8.64c0-2.378-.449-4.377-1.346-5.999-.898-1.636-2.23-2.866-3.996-3.69-1.752-.826-3.91-1.238-6.474-1.238H4.72v3.44h6.26c2.593 0 4.56.621 5.898 1.866 1.353 1.244 2.03 3.062 2.03 5.453v8.976c0 2.39-.677 4.208-2.03 5.452-1.339 1.245-3.305 1.867-5.897 1.867Z" fill="#fff"/><path d="M135.765 20.73c.641.237 1.168.587 1.581 1.048l2.415-3.146a6.028 6.028 0 0 0-2.158-1.258c-.812-.293-1.724-.44-2.735-.44-1.439 0-2.756.363-3.953 1.09a8.064 8.064 0 0 0-2.479 2.32v4.895c0-1.524.449-2.713 1.347-3.566.897-.866 2.15-1.3 3.76-1.3.841 0 1.581.119 2.222.357Zm13.504 17.68c1.126.614 2.479.922 4.06.922 1.61 0 2.992-.343 4.145-1.028 1.154-.699 2.03-1.706 2.629-3.02.598-1.314.897-2.894.897-4.74v-4.74c0-1.873-.292-3.473-.876-4.802-.584-1.328-1.439-2.335-2.564-3.02-1.111-.699-2.45-1.048-4.017-1.048-1.51 0-2.856.328-4.039.985-.941.53-1.738 1.282-2.393 2.256v4.938c0-.923.2-1.762.599-2.517a4.374 4.374 0 0 1 1.73-1.782c.755-.434 1.646-.65 2.671-.65 1.653 0 2.928.496 3.825 1.488.897.98 1.346 2.37 1.346 4.174v4.719c0 1.761-.449 3.131-1.346 4.11-.897.965-2.172 1.447-3.825 1.447-1.025 0-1.916-.223-2.671-.67a4.477 4.477 0 0 1-1.73-1.826c-.399-.769-.599-1.621-.599-2.558v5.174a5.415 5.415 0 0 0 2.158 2.187Z" fill="#026FD4"/></g><defs><filter id="a" x="0" y="0" width="168" height="54.869" filterUnits="userSpaceOnUse" color-interpolation-filters="sRGB"><feFlood flood-opacity="0" result="BackgroundImageFix"/><feColorMatrix in="SourceAlpha" values="0 0 0 0 0 0 0 0 0 0 0 0 0 0 0 0 0 0 127 0" result="hardAlpha"/><feOffset dx="3" dy="3"/><feGaussianBlur stdDeviation="2"/><feComposite in2="hardAlpha" operator="out"/><feColorMatrix values="0 0 0 0 0 0 0 0 0 0 0 0 0 0 0 0 0 0 0.25 0"/><feBlend in2="BackgroundImageFix" result="effect1_dropShadow_450_95"/><feBlend in="SourceGraphic" in2="effect1_dropShadow_450_95" result="shape"/></filter></defs></svg>
